X: 17
T:Meggy's Foot
% Nottingham Music Database
S:NPTB, via EF
M:4/4
L:1/4
K:G
"G"g/2f/2e/2d/2 B2|"G"B/2c/2d "D"A2|"G"g/2f/2e/2d/2 BG|"G"B/2c/2d G2:|
"G"GG B/2c/2d|"D"AA B/2c/2d|"G"GG B/2c/2d|"G"B/2c/2d G2:|
"G"Bg Bg|"G"Bg "D"A2|"G"Bg Bg|"G"Bg G2:|
"G"g/2f/2e/2d/2 c/2B/2A/2G/2|"G"B/2c/2d/2B/2 "D"A/2B/2c/2A/2|\
"G"g/2f/2e/2d/2 c/2B/2A/2G/2|"G"B/2c/2d/2B/2 G2:|
"G"B/2d/2g/2d/2 B/2d/2g/2d/2|"G"B/2d/2g/2d/2 "D"A/2d/2g/2d/2|\
"G"B/2d/2g/2d/2 B/2d/2g/2d/2|"G"B/2d/2g/2d/2 G2:|
"G"g3/2d/2 BG|"G"Bd "D"A2|"G"g3/2d/2 BG|"G"Bd G2:|
"G"GG B/2c/2d|"D"AA B/2c/2d|"G"GG B/2c/2d|"G"B/2c/2d G2:|
"G"Bg Bg|"G"Bg "D"A2|"G"Bg Bg|"G"Bg G2:|<end>
<start>
